src/ui/webui/resources/cr_components/chromeos/network/wifi_off.svg

<svg width="20" height="20" viewBox="0 0 20 20" xmlns="http://www.w3.org/2000/svg">
<path fill-rule="evenodd" clip-rule="evenodd" d="M10 6C7.96011 6 6.14746 6.5389 4.6073 7.37238L9.99933 14.2053L15.3926 7.37228C13.8524 6.53869 12.0402 6 10 6ZM17.8425 7.49646L10.5554 16.7289C10.2698 17.0905 9.72802 17.0905 9.44247 16.7281L2.15749 7.49646C1.89621 7.16533 1.96831 6.68099 2.31239 6.44135C3.50455 5.61135 6.26792 4 10 4C13.7328 4 16.4955 5.61135 17.6876 6.44135C18.0317 6.68099 18.1038 7.16533 17.8425 7.49646Z" />
</svg>

<svg width="20" height="20" viewBox="0 0 20 20" xmlns="http://www.w3.org/2000/svg"><path fill-rule="evenodd" clip-rule="evenodd" d="M10 6c-2.04 0-3.853.539-5.393 1.372L10 14.205l5.394-6.833A11.244 11.244 0 0 0 10 6Zm7.843 1.496-7.288 9.233a.706.706 0 0 1-1.113 0L2.157 7.495a.734.734 0 0 1 .155-1.055C3.505 5.611 6.268 4 10 4c3.733 0 6.495 1.611 7.688 2.441.344.24.416.724.155 1.055Z"/></svg>
